X: 11140
T: Dulaman Na Binne Bui
R: strathspey
M: 4/4
K: Dmajor
A2 B>c d2 A>F|G2 E<D E2 G2|A<AB>c d2 F>G|A2 G<E D2 D2-|HD8||
K: DMix
A>GE>D C>DE<G|A>GE>D G2 G2|A>GE>D C>DE>G|A>AG>E D2 D2-|HD8||

